X:21
T:
T:ney 50
L:1/4
Q:1/4=120
M:4/4
K:F
A>A GF | A2 z2 | "repet" | A>G AB | G2 z2 | G>G F=E |
G2 z2 | "repet" | G>F GA | F2 z2 :| F>E DE | C2 z2 | "repet"
|:C{d}E/2F/2 G{F} EF | G2 z2 | A>E F G{F} F2 z2 :|]



